exports/cyclone-power-dissipation-index_v1_850x600.svg

<svg xmlns="http://www.w3.org/2000/svg" version="1.1" style="background-color:#fff;-webkit-font-smoothing:antialiased" width="850" height="600" font-family="'Helvetica Neue',Helvetica,Arial,sans-serif" font-size="18" text-rendering="optimizeLegibility"><g class="ChartTab"><g class="HeaderView"><g opacity=".8" transform="matrix(.27 0 0 .27 778 15)"><a xmlns:xlink="http://www.w3.org/1999/xlink" xlink:href="https://ourworldindata.org" target="_blank"><g><path fill="#1B2543" d="M0 0h211.2v130.1H0z"/><path fill="#E63912" d="M0 112.2h211.2v17.9H0z"/><g><path fill="none" d="M1.2 12.3h210.2v99.2H1.2z"/><path fill="#FFF" d="M37.8 32.2c0 12.7-7.7 19.4-17.1 19.4-9.7 0-16.6-7.5-16.6-18.7 0-11.7 7.3-19.3 17.1-19.3 10.1.1 16.6 7.7 16.6 18.6zm-28.6.6c0 7.9 4.3 14.9 11.8 14.9 7.5 0 11.8-6.9 11.8-15.3 0-7.3-3.8-14.9-11.8-14.9-7.9 0-11.8 7.3-11.8 15.3zM62.7 43.8c0 2.7.1 5.1.2 7.2h-4.3l-.3-4.3h-.1c-1.3 2.1-4 4.9-8.8 4.9-4.2 0-9.1-2.3-9.1-11.6V24.6h4.8v14.6c0 5 1.5 8.4 5.9 8.4 3.2 0 5.5-2.2 6.3-4.4.3-.7.4-1.6.4-2.5V24.6h4.8v19.2zM67.3 32.8c0-3.1-.1-5.8-.2-8.2h4.2l.2 5.2h.2c1.2-3.5 4.1-5.8 7.3-5.8.5 0 .9.1 1.4.2v4.5c-.5-.1-1-.2-1.6-.2-3.4 0-5.8 2.6-6.5 6.2-.1.7-.2 1.4-.2 2.2V51h-4.8V32.8zM95.4 51L86 14.2h5l4.4 18.6c1.1 4.6 2.1 9.2 2.7 12.7h.1c.6-3.7 1.8-8 3-12.8l4.9-18.5h5l4.5 18.7c1 4.4 2 8.7 2.6 12.6h.1c.8-4 1.8-8.1 3-12.7l4.9-18.5h4.9L120.6 51h-5L111 31.9c-1.1-4.7-1.9-8.3-2.4-12h-.1c-.7 3.7-1.5 7.3-2.8 12L100.4 51h-5zM154.9 37.6c0 9.8-6.8 14-13.2 14-7.2 0-12.7-5.2-12.7-13.6 0-8.8 5.8-14 13.1-14 7.7 0 12.8 5.5 12.8 13.6zm-21 .3c0 5.8 3.3 10.1 8 10.1 4.6 0 8-4.3 8-10.3 0-4.5-2.2-10.1-7.9-10.1s-8.1 5.2-8.1 10.3zM158.2 32.8c0-3.1-.1-5.8-.2-8.2h4.2l.2 5.2h.2c1.2-3.5 4.1-5.8 7.3-5.8.5 0 .9.1 1.4.2v4.5c-.5-.1-1-.2-1.6-.2-3.4 0-5.8 2.6-6.5 6.2-.1.7-.2 1.4-.2 2.2V51h-4.8V32.8zM173.5 12.3h4.8V51h-4.8V12.3zM206.5 12.3v31.9c0 2.3.1 5 .2 6.8h-4.3l-.2-4.6h-.2c-1.5 2.9-4.7 5.2-9 5.2-6.4 0-11.3-5.4-11.3-13.4-.1-8.8 5.4-14.2 11.9-14.2 4 0 6.8 1.9 8 4h.1V12.3h4.8zm-4.8 23.1c0-.6-.1-1.4-.2-2a7 7 0 00-6.9-5.6c-5 0-7.9 4.4-7.9 10.2 0 5.3 2.6 9.8 7.8 9.8 3.2 0 6.2-2.1 7.1-5.7.2-.7.2-1.3.2-2.1v-4.6zM42.8 64c.1 1.6-1.1 2.9-3.1 2.9-1.7 0-2.9-1.3-2.9-2.9 0-1.7 1.3-3 3-3 1.9 0 3 1.3 3 3zm-5.4 33.8V71.4h4.8v26.4h-4.8zM47.5 78.6c0-2.7-.1-5-.2-7.1h4.3l.3 4.4h.1c1.3-2.5 4.4-5 8.8-5 3.7 0 9.4 2.2 9.4 11.2v15.8h-4.8V82.6c0-4.3-1.6-7.8-6.1-7.8-3.2 0-5.6 2.2-6.5 4.9-.2.6-.3 1.4-.3 2.2v15.9h-4.8V78.6zM84 61.6c2.9-.4 6.3-.8 10.1-.8 6.8 0 11.7 1.6 14.9 4.6 3.3 3 5.2 7.3 5.2 13.2 0 6-1.9 10.9-5.3 14.3-3.4 3.4-9.1 5.3-16.3 5.3-3.4 0-6.2-.2-8.6-.4V61.6zm4.8 32.5c1.2.2 3 .3 4.8.3 10.2 0 15.7-5.7 15.7-15.6.1-8.7-4.9-14.2-14.9-14.2-2.5 0-4.3.2-5.6.5v29zM132.1 97.8l-.4-3.3h-.2a9.79 9.79 0 01-8.1 3.9c-5.4 0-8.1-3.8-8.1-7.6 0-6.4 5.7-9.9 15.9-9.8v-.5c0-2.2-.6-6.1-6-6.1-2.5 0-5 .8-6.9 2l-1.1-3.2c2.2-1.4 5.4-2.3 8.7-2.3 8.1 0 10.1 5.5 10.1 10.8v9.9c0 2.3.1 4.5.4 6.3h-4.3zm-.7-13.4c-5.3-.1-11.2.8-11.2 5.9 0 3.1 2.1 4.6 4.5 4.6 3.4 0 5.6-2.2 6.4-4.4.2-.5.3-1 .3-1.5v-4.6zM146.6 63.9v7.6h6.9v3.7h-6.9v14.2c0 3.3.9 5.1 3.6 5.1 1.3 0 2.2-.2 2.8-.3l.2 3.6c-.9.4-2.4.7-4.3.7-2.2 0-4-.7-5.2-2-1.4-1.4-1.9-3.8-1.9-6.9V75.1h-4.1v-3.7h4.1v-6.3l4.8-1.2zM171.4 97.8l-.4-3.3h-.2a9.79 9.79 0 01-8.1 3.9c-5.4 0-8.1-3.8-8.1-7.6 0-6.4 5.7-9.9 15.9-9.8v-.5c0-2.2-.6-6.1-6-6.1-2.5 0-5 .8-6.9 2l-1.1-3.2c2.2-1.4 5.4-2.3 8.7-2.3 8.1 0 10.1 5.5 10.1 10.8v9.9c0 2.3.1 4.5.4 6.3h-4.3zm-.7-13.4c-5.3-.1-11.2.8-11.2 5.9 0 3.1 2.1 4.6 4.5 4.6 3.4 0 5.6-2.2 6.4-4.4.2-.5.3-1 .3-1.5v-4.6z"/></g></g></a></g><a href="https://ourworldindata.org/grapher/cyclone-power-dissipation-index" target="_blank"><text font-size="25.2" x="15" y="35.2" fill="#555"><tspan x="15" y="35.16">Power Dissipation Index (PDI) of North Atlantic cyclones</tspan></text></a><text font-size="14.4" x="15" y="53.7" fill="#666"><tspan x="15" y="53.72">The Power Dissipation Index (PDI) measures the activity of cyclones by accounting for cyclone strength, duration,</tspan><tspan x="15" y="69.56">and frequency. The lines have been smoothed using a five-year weighted average, plotted at the middle year. The</tspan><tspan x="15" y="85.4">most recent average (2011–2015) is plotted at 2013.</tspan></text></g><g class="LineChart"><defs><clipPath id="a"><path d="M19.07 0h830v897.8h-830z"/></clipPath></defs><g class="AxisBoxView"><g class="HorizontalAxis" fill="#666" text-anchor="middle" font-size="16.2"><text x="29.1" y="556.5">1951</text><text x="129.2" y="556.5">1960</text><text x="240.4" y="556.5">1970</text><text x="351.7" y="556.5">1980</text><text x="462.9" y="556.5">1990</text><text x="574.1" y="556.5">2000</text><text x="718.7" y="556.5">2013</text></g><g class="VerticalAxis" fill="#666" dominant-baseline="middle" text-anchor="end" font-size="16.2"><text x="24.07" y="535.3">0</text><text x="24.07" y="464.1">1</text><text x="24.07" y="392.8">2</text><text x="24.07" y="321.6">3</text><text x="24.07" y="250.3">4</text><text x="24.07" y="179.1">5</text><text x="24.07" y="107.8">6</text></g><g class="AxisGridLines"><path stroke="#ccc" d="M29.07 535.3h689.66"/><path stroke="#ddd" stroke-dasharray="3,2" d="M29.07 464.1h689.66M29.07 392.8h689.66M29.07 321.6h689.66M29.07 250.3h689.66M29.07 179.1h689.66M29.07 107.8h689.66"/></g></g><g clip-path="url(#a)"><g class="HeightedLegend clickable"><g class="legendMark"><text font-size="13.5" x="723.7" y="407.9" fill="#3360a9"><tspan x="723.73" y="407.95">North Atlantic</tspan></text></g></g><g class="Lines"><g class="key-North-Atlantic_0"><path stroke="#3360a9" stroke-linecap="round" d="M29 337l11 31 11 6 11-15 12 5 11 18 11 11 11-4 11-24 11-27 11-3 11 15 12 7 11-10 11-5 11 21 11 19 11 11 11 6 11 7 12 20 11 17 11-2 11-16 11-11 11 8 11 6 11-28 12-51 11-18 11 42 11 61 11 20 11-17 11-9 11 3 12-24 11-49 11-19 11 28 11 38 11 23 11-11 11-62 12-67 11-21 11 5 11-12 11-11 11 37 11 40 11-35 12-105 11-78 11 32 11 97 11 75 11 17 11-14 11-9 12 11 11 44 11 43" fill="none" stroke-width="1.5"/><g fill="#3360a9"><circle cx="29" cy="337" r="2"/><circle cx="40" cy="368" r="2"/><circle cx="51" cy="374" r="2"/><circle cx="62" cy="359" r="2"/><circle cx="74" cy="364" r="2"/><circle cx="85" cy="382" r="2"/><circle cx="96" cy="393" r="2"/><circle cx="107" cy="389" r="2"/><circle cx="118" cy="365" r="2"/><circle cx="129" cy="338" r="2"/><circle cx="140" cy="335" r="2"/><circle cx="151" cy="350" r="2"/><circle cx="163" cy="357" r="2"/><circle cx="174" cy="347" r="2"/><circle cx="185" cy="342" r="2"/><circle cx="196" cy="363" r="2"/><circle cx="207" cy="382" r="2"/><circle cx="218" cy="393" r="2"/><circle cx="229" cy="399" r="2"/><circle cx="240" cy="406" r="2"/><circle cx="252" cy="426" r="2"/><circle cx="263" cy="443" r="2"/><circle cx="274" cy="441" r="2"/><circle cx="285" cy="425" r="2"/><circle cx="296" cy="414" r="2"/><circle cx="307" cy="422" r="2"/><circle cx="318" cy="428" r="2"/><circle cx="329" cy="400" r="2"/><circle cx="341" cy="349" r="2"/><circle cx="352" cy="331" r="2"/><circle cx="363" cy="373" r="2"/><circle cx="374" cy="434" r="2"/><circle cx="385" cy="454" r="2"/><circle cx="396" cy="437" r="2"/><circle cx="407" cy="428" r="2"/><circle cx="418" cy="431" r="2"/><circle cx="430" cy="407" r="2"/><circle cx="441" cy="358" r="2"/><circle cx="452" cy="339" r="2"/><circle cx="463" cy="367" r="2"/><circle cx="474" cy="405" r="2"/><circle cx="485" cy="428" r="2"/><circle cx="496" cy="417" r="2"/><circle cx="507" cy="355" r="2"/><circle cx="519" cy="288" r="2"/><circle cx="530" cy="267" r="2"/><circle cx="541" cy="272" r="2"/><circle cx="552" cy="260" r="2"/><circle cx="563" cy="249" r="2"/><circle cx="574" cy="286" r="2"/><circle cx="585" cy="326" r="2"/><circle cx="596" cy="291" r="2"/><circle cx="608" cy="186" r="2"/><circle cx="619" cy="108" r="2"/><circle cx="630" cy="140" r="2"/><circle cx="641" cy="237" r="2"/><circle cx="652" cy="312" r="2"/><circle cx="663" cy="329" r="2"/><circle cx="674" cy="315" r="2"/><circle cx="685" cy="306" r="2"/><circle cx="697" cy="317" r="2"/><circle cx="708" cy="361" r="2"/><circle cx="719" cy="404" r="2"/></g></g></g></g></g><g class="SourcesFooter" fill="#777"><g class="clickable" fill="#777"><text font-size="12.6" x="15" y="581.6"><tspan x="15" y="581.58">Source: Hurricane Database, HUDRAT (NOAA)</tspan></text></g><text font-size="12.6" x="775.4" y="581.6"><tspan x="775.4" y="581.58"><a class="cclogo" href="http://creativecommons.org/licenses/by-sa/4.0/deed.en_US" target="_blank" fill="#777">CC BY-SA</a></tspan></text></g></g></svg>

<svg xmlns="http://www.w3.org/2000/svg" version="1.1" style="font-family: 'Helvetica Neue', Helvetica, Arial, sans-serif; font-size: 18px; background-color: white; text-rendering: optimizeLegibility; -webkit-font-smoothing: antialiased;" width="850" height="600"><g class="ChartTab"><g class="HeaderView"><g opacity="0.8" transform="translate(778, 15) scale(0.27)"><a xmlns:xlink="http://www.w3.org/1999/xlink" xlink:href="https://ourworldindata.org" target="_blank"><g><rect x="0" y="0" fill="#1B2543" width="211.2" height="130.1"/><rect x="0" y="112.2" fill="#E63912" width="211.2" height="17.9"/><g><rect x="1.2" y="12.3" fill="none" width="210.2" height="99.2"/><path fill="#FFFFFF" d="M37.8,32.2c0,12.7-7.7,19.4-17.1,19.4c-9.7,0-16.6-7.5-16.6-18.7c0-11.7,7.3-19.3,17.1-19.3 C31.3,13.7,37.8,21.3,37.8,32.2z M9.2,32.8c0,7.9,4.3,14.9,11.8,14.9c7.5,0,11.8-6.9,11.8-15.3c0-7.3-3.8-14.9-11.8-14.9 C13.1,17.5,9.2,24.8,9.2,32.8z"/><path fill="#FFFFFF" d="M62.7,43.8c0,2.7,0.1,5.1,0.2,7.2h-4.3l-0.3-4.3h-0.1c-1.3,2.1-4,4.9-8.8,4.9c-4.2,0-9.1-2.3-9.1-11.6 V24.6h4.8v14.6c0,5,1.5,8.4,5.9,8.4c3.2,0,5.5-2.2,6.3-4.4c0.3-0.7,0.4-1.6,0.4-2.5V24.6h4.8V43.8z"/><path fill="#FFFFFF" d="M67.3,32.8c0-3.1-0.1-5.8-0.2-8.2h4.2l0.2,5.2h0.2c1.2-3.5,4.1-5.8,7.3-5.8c0.5,0,0.9,0.1,1.4,0.2v4.5 c-0.5-0.1-1-0.2-1.6-0.2c-3.4,0-5.8,2.6-6.5,6.2c-0.1,0.7-0.2,1.4-0.2,2.2V51h-4.8V32.8z"/><path fill="#FFFFFF" d="M95.4,51l-9.4-36.8h5l4.4,18.6c1.1,4.6,2.1,9.2,2.7,12.7h0.1c0.6-3.7,1.8-8,3-12.8l4.9-18.5h5l4.5,18.7 c1,4.4,2,8.7,2.6,12.6h0.1c0.8-4,1.8-8.1,3-12.7l4.9-18.5h4.9L120.6,51h-5L111,31.9c-1.1-4.7-1.9-8.3-2.4-12h-0.1 c-0.7,3.7-1.5,7.3-2.8,12L100.4,51H95.4z"/><path fill="#FFFFFF" d="M154.9,37.6c0,9.8-6.8,14-13.2,14c-7.2,0-12.7-5.2-12.7-13.6c0-8.8,5.8-14,13.1-14 C149.8,24,154.9,29.5,154.9,37.6z M133.9,37.9c0,5.8,3.3,10.1,8,10.1c4.6,0,8-4.3,8-10.3c0-4.5-2.2-10.1-7.9-10.1 C136.3,27.6,133.9,32.8,133.9,37.9z"/><path fill="#FFFFFF" d="M158.2,32.8c0-3.1-0.1-5.8-0.2-8.2h4.2l0.2,5.2h0.2c1.2-3.5,4.1-5.8,7.3-5.8c0.5,0,0.9,0.1,1.4,0.2v4.5 c-0.5-0.1-1-0.2-1.6-0.2c-3.4,0-5.8,2.6-6.5,6.2c-0.1,0.7-0.2,1.4-0.2,2.2V51h-4.8V32.8z"/><path fill="#FFFFFF" d="M173.5,12.3h4.8V51h-4.8V12.3z"/><path fill="#FFFFFF" d="M206.5,12.3v31.9c0,2.3,0.1,5,0.2,6.8h-4.3l-0.2-4.6H202c-1.5,2.9-4.7,5.2-9,5.2 c-6.4,0-11.3-5.4-11.3-13.4c-0.1-8.8,5.4-14.2,11.9-14.2c4,0,6.8,1.9,8,4h0.1V12.3H206.5z M201.7,35.4c0-0.6-0.1-1.4-0.2-2 c-0.7-3.1-3.3-5.6-6.9-5.6c-5,0-7.9,4.4-7.9,10.2c0,5.3,2.6,9.8,7.8,9.8c3.2,0,6.2-2.1,7.1-5.7c0.2-0.7,0.2-1.3,0.2-2.1V35.4z"/><path fill="#FFFFFF" d="M42.8,64c0.1,1.6-1.1,2.9-3.1,2.9c-1.7,0-2.9-1.3-2.9-2.9c0-1.7,1.3-3,3-3C41.7,61,42.8,62.3,42.8,64z M37.4,97.8V71.4h4.8v26.4H37.4z"/><path fill="#FFFFFF" d="M47.5,78.6c0-2.7-0.1-5-0.2-7.1h4.3l0.3,4.4h0.1c1.3-2.5,4.4-5,8.8-5c3.7,0,9.4,2.2,9.4,11.2v15.8h-4.8 V82.6c0-4.3-1.6-7.8-6.1-7.8c-3.2,0-5.6,2.2-6.5,4.9c-0.2,0.6-0.3,1.4-0.3,2.2v15.9h-4.8V78.6z"/><path fill="#FFFFFF" d="M84,61.6c2.9-0.4,6.3-0.8,10.1-0.8c6.8,0,11.7,1.6,14.9,4.6c3.3,3,5.2,7.3,5.2,13.2c0,6-1.9,10.9-5.3,14.3 c-3.4,3.4-9.1,5.3-16.3,5.3c-3.4,0-6.2-0.2-8.6-0.4V61.6z M88.8,94.1c1.2,0.2,3,0.3,4.8,0.3c10.2,0,15.7-5.7,15.7-15.6 c0.1-8.7-4.9-14.2-14.9-14.2c-2.5,0-4.3,0.2-5.6,0.5V94.1z"/><path fill="#FFFFFF" d="M132.1,97.8l-0.4-3.3h-0.2c-1.5,2.1-4.3,3.9-8.1,3.9c-5.4,0-8.1-3.8-8.1-7.6c0-6.4,5.7-9.9,15.9-9.8v-0.5 c0-2.2-0.6-6.1-6-6.1c-2.5,0-5,0.8-6.9,2l-1.1-3.2c2.2-1.4,5.4-2.3,8.7-2.3c8.1,0,10.1,5.5,10.1,10.8v9.9c0,2.3,0.1,4.5,0.4,6.3 H132.1z M131.4,84.4c-5.3-0.1-11.2,0.8-11.2,5.9c0,3.1,2.1,4.6,4.5,4.6c3.4,0,5.6-2.2,6.4-4.4c0.2-0.5,0.3-1,0.3-1.5V84.4z"/><path fill="#FFFFFF" d="M146.6,63.9v7.6h6.9v3.7h-6.9v14.2c0,3.3,0.9,5.1,3.6,5.1c1.3,0,2.2-0.2,2.8-0.3l0.2,3.6 c-0.9,0.4-2.4,0.7-4.3,0.7c-2.2,0-4-0.7-5.2-2c-1.4-1.4-1.9-3.8-1.9-6.9V75.1h-4.1v-3.7h4.1v-6.3L146.6,63.9z"/><path fill="#FFFFFF" d="M171.4,97.8l-0.4-3.3h-0.2c-1.5,2.1-4.3,3.9-8.1,3.9c-5.4,0-8.1-3.8-8.1-7.6c0-6.4,5.7-9.9,15.9-9.8v-0.5 c0-2.2-0.6-6.1-6-6.1c-2.5,0-5,0.8-6.9,2l-1.1-3.2c2.2-1.4,5.4-2.3,8.7-2.3c8.1,0,10.1,5.5,10.1,10.8v9.9c0,2.3,0.1,4.5,0.4,6.3 H171.4z M170.7,84.4c-5.3-0.1-11.2,0.8-11.2,5.9c0,3.1,2.1,4.6,4.5,4.6c3.4,0,5.6-2.2,6.4-4.4c0.2-0.5,0.3-1,0.3-1.5V84.4z"/></g></g></a></g><a href="https://ourworldindata.org/grapher/cyclone-power-dissipation-index" target="_blank"><text font-size="25.20" x="15.0" y="35.2" fill="#555"><tspan x="15" y="35.160000000000004">Power Dissipation Index (PDI) of North Atlantic cyclones</tspan></text></a><text font-size="14.40" x="15.0" y="53.7" fill="#666"><tspan x="15" y="53.72">The Power Dissipation Index (PDI) measures the activity of cyclones by accounting for cyclone strength, duration,</tspan><tspan x="15" y="69.56">and frequency. The lines have been smoothed using a five-year weighted average, plotted at the middle year. The</tspan><tspan x="15" y="85.4">most recent average (2011–2015) is plotted at 2013.</tspan></text></g><g class="LineChart"><defs><clipPath id="boundsClip-1"><rect x="19.072000000000003" y="0" width="830" height="897.8"></rect></clipPath></defs><g class="AxisBoxView"><g class="HorizontalAxis"><text x="29.1" y="556.5" fill="#666" text-anchor="middle" font-size="16.2">1951</text><text x="129.2" y="556.5" fill="#666" text-anchor="middle" font-size="16.2">1960</text><text x="240.4" y="556.5" fill="#666" text-anchor="middle" font-size="16.2">1970</text><text x="351.7" y="556.5" fill="#666" text-anchor="middle" font-size="16.2">1980</text><text x="462.9" y="556.5" fill="#666" text-anchor="middle" font-size="16.2">1990</text><text x="574.1" y="556.5" fill="#666" text-anchor="middle" font-size="16.2">2000</text><text x="718.7" y="556.5" fill="#666" text-anchor="middle" font-size="16.2">2013</text></g><g class="VerticalAxis"><text x="24.07" y="535.3" fill="#666" dominant-baseline="middle" text-anchor="end" font-size="16.2">0</text><text x="24.07" y="464.1" fill="#666" dominant-baseline="middle" text-anchor="end" font-size="16.2">1</text><text x="24.07" y="392.8" fill="#666" dominant-baseline="middle" text-anchor="end" font-size="16.2">2</text><text x="24.07" y="321.6" fill="#666" dominant-baseline="middle" text-anchor="end" font-size="16.2">3</text><text x="24.07" y="250.3" fill="#666" dominant-baseline="middle" text-anchor="end" font-size="16.2">4</text><text x="24.07" y="179.1" fill="#666" dominant-baseline="middle" text-anchor="end" font-size="16.2">5</text><text x="24.07" y="107.8" fill="#666" dominant-baseline="middle" text-anchor="end" font-size="16.2">6</text></g><g class="AxisGridLines"><line x1="29.07" y1="535.3" x2="718.73" y2="535.3" stroke="#ccc"></line><line x1="29.07" y1="464.1" x2="718.73" y2="464.1" stroke="#ddd" stroke-dasharray="3,2"></line><line x1="29.07" y1="392.8" x2="718.73" y2="392.8" stroke="#ddd" stroke-dasharray="3,2"></line><line x1="29.07" y1="321.6" x2="718.73" y2="321.6" stroke="#ddd" stroke-dasharray="3,2"></line><line x1="29.07" y1="250.3" x2="718.73" y2="250.3" stroke="#ddd" stroke-dasharray="3,2"></line><line x1="29.07" y1="179.1" x2="718.73" y2="179.1" stroke="#ddd" stroke-dasharray="3,2"></line><line x1="29.07" y1="107.8" x2="718.73" y2="107.8" stroke="#ddd" stroke-dasharray="3,2"></line></g></g><g clip-path="url(#boundsClip-1)"><g class="HeightedLegend clickable"><g class="legendMark"><rect x="718.73" y="397.15" width="116.27000000000001" height="13.5" fill="#fff" opacity="0"></rect><text font-size="13.50" x="723.7" y="407.9" fill="#3360a9"><tspan x="723.73" y="407.95">North Atlantic</tspan></text></g></g><g class="Lines"><rect x="29" y="108" width="690" height="428" fill="rgba(255,255,255,0)" opacity="0"></rect><g class="key-North-Atlantic_0"><path stroke="#3360a9" stroke-linecap="round" d="M29 337L40 368L51 374L62 359L74 364L85 382L96 393L107 389L118 365L129 338L140 335L151 350L163 357L174 347L185 342L196 363L207 382L218 393L229 399L240 406L252 426L263 443L274 441L285 425L296 414L307 422L318 428L329 400L341 349L352 331L363 373L374 434L385 454L396 437L407 428L418 431L430 407L441 358L452 339L463 367L474 405L485 428L496 417L507 355L519 288L530 267L541 272L552 260L563 249L574 286L585 326L596 291L608 186L619 108L630 140L641 237L652 312L663 329L674 315L685 306L697 317L708 361L719 404" fill="none" stroke-width="1.5"></path><g fill="#3360a9"><circle cx="29" cy="337" r="2"></circle><circle cx="40" cy="368" r="2"></circle><circle cx="51" cy="374" r="2"></circle><circle cx="62" cy="359" r="2"></circle><circle cx="74" cy="364" r="2"></circle><circle cx="85" cy="382" r="2"></circle><circle cx="96" cy="393" r="2"></circle><circle cx="107" cy="389" r="2"></circle><circle cx="118" cy="365" r="2"></circle><circle cx="129" cy="338" r="2"></circle><circle cx="140" cy="335" r="2"></circle><circle cx="151" cy="350" r="2"></circle><circle cx="163" cy="357" r="2"></circle><circle cx="174" cy="347" r="2"></circle><circle cx="185" cy="342" r="2"></circle><circle cx="196" cy="363" r="2"></circle><circle cx="207" cy="382" r="2"></circle><circle cx="218" cy="393" r="2"></circle><circle cx="229" cy="399" r="2"></circle><circle cx="240" cy="406" r="2"></circle><circle cx="252" cy="426" r="2"></circle><circle cx="263" cy="443" r="2"></circle><circle cx="274" cy="441" r="2"></circle><circle cx="285" cy="425" r="2"></circle><circle cx="296" cy="414" r="2"></circle><circle cx="307" cy="422" r="2"></circle><circle cx="318" cy="428" r="2"></circle><circle cx="329" cy="400" r="2"></circle><circle cx="341" cy="349" r="2"></circle><circle cx="352" cy="331" r="2"></circle><circle cx="363" cy="373" r="2"></circle><circle cx="374" cy="434" r="2"></circle><circle cx="385" cy="454" r="2"></circle><circle cx="396" cy="437" r="2"></circle><circle cx="407" cy="428" r="2"></circle><circle cx="418" cy="431" r="2"></circle><circle cx="430" cy="407" r="2"></circle><circle cx="441" cy="358" r="2"></circle><circle cx="452" cy="339" r="2"></circle><circle cx="463" cy="367" r="2"></circle><circle cx="474" cy="405" r="2"></circle><circle cx="485" cy="428" r="2"></circle><circle cx="496" cy="417" r="2"></circle><circle cx="507" cy="355" r="2"></circle><circle cx="519" cy="288" r="2"></circle><circle cx="530" cy="267" r="2"></circle><circle cx="541" cy="272" r="2"></circle><circle cx="552" cy="260" r="2"></circle><circle cx="563" cy="249" r="2"></circle><circle cx="574" cy="286" r="2"></circle><circle cx="585" cy="326" r="2"></circle><circle cx="596" cy="291" r="2"></circle><circle cx="608" cy="186" r="2"></circle><circle cx="619" cy="108" r="2"></circle><circle cx="630" cy="140" r="2"></circle><circle cx="641" cy="237" r="2"></circle><circle cx="652" cy="312" r="2"></circle><circle cx="663" cy="329" r="2"></circle><circle cx="674" cy="315" r="2"></circle><circle cx="685" cy="306" r="2"></circle><circle cx="697" cy="317" r="2"></circle><circle cx="708" cy="361" r="2"></circle><circle cx="719" cy="404" r="2"></circle></g></g></g></g></g><g style="fill: #777;" class="SourcesFooter"><g style="fill: #777;" class="clickable"><text font-size="12.60" x="15.0" y="581.6"><tspan x="15" y="581.58">Source: Hurricane Database, HUDRAT (NOAA)</tspan></text></g><text font-size="12.60" x="775.4" y="581.6"><tspan x="775.402" y="581.58"><a style="fill: #777;" class="cclogo" href="http://creativecommons.org/licenses/by-sa/4.0/deed.en_US" target="_blank">CC BY-SA</a></tspan></text></g></g></svg>
